X:1
T:Title
%%score { ( 1 3 ) | 2 }
L:1/8
Q:1/4=78
M:6/8
K:Ab
V:1 treble nm="Grand Piano"
V:3 treble 
V:2 bass 
V:1
 [CE][DF][CE] [Ec]>[EB][EA] | [FA][EG][DF] [CE]3 | [A,C][CE][CA] [Ec]>[Fd][Ec] | [=Dc][DF][Dc] B3 | %4
w: James~M.~Black * * * * *||||
 Bcd G>FE | [Ee][Ee][Ed] [Ec]3 | BAF Eec | B3 .[CA]3 | .e6 | [Gd]3 .[Gd]3 | .d6 | [Bd]3 .[Ac]3 | %12
w: ||||||||
 .c6 | [DF]3 .[FB]3 | [FB][FA]F Eec | B3 .[CA]3 |] %16
w: ||||
V:2
 [A,,A,][A,,A,][A,,A,] [A,,A,]>[B,,G,][C,A,] | [D,A,][D,A,][D,A,] [A,,A,]3 | %2
 [A,,E,][A,,A,][A,,E,] [A,,A,]>[A,,A,][A,,A,] | [B,,F,][B,,B,][B,,A,] [E,G,E]3 | %4
 [E,G,E][E,A,E][E,B,E] [E,B,E]>[E,A,E][E,G,] | [C,A,][C,A,][B,,G,] [A,,A,]3 | %6
 [D,F,D][D,F,D][D,A,D] [E,A,C][E,CE][E,A,E] | [E,G,D]3 .[A,,A,]3 | %8
 [A,CE][A,C][A,D] [A,C][A,B,E][A,E] | [B,,D,]3 .[B,,D,]3 | [E,G,E][E,B,][E,A,] [E,G,][E,E][E,E] | %11
 [A,E]3 .[A,E]3 | [A,,A,][A,,A,][A,,A,] A,[G,B,E][A,E] | [C,A,]3 .[D,A,]3 | %14
 [D,D][D,D][D,A,D] [E,A,C][E,CE][E,A,E] | [E,G,D]3 .[A,,A,]3 |] %16
V:3
 x6 | x6 | x6 | x6 | x6 | x6 | x6 | x6 | z AB Adc | x6 | z GF E[Gc][GB] | x6 | EAF Edc | x6 | x6 | %15
 x6 |] %16

